X:1
T:Against all those that strive with me
T:Against all those that strive with me (Joseph Stephenson)
C:Joseph Stephenson
Z:p45, Church Harmony
Z:Sacred to Devotion, 4th ed.,
Z:London: [c1763-71]
%%score [ 1 2 3 4 ]
L:1/8
M:2/2
K:Bb
V:1 treble nm="SOPRANO" snm="S."
V:2 treble nm="ALTO" snm="A."
V:3 treble-8 transpose=-12 nm="TENOR" snm="T."
V:4 bass nm="BASS" snm="B."
V:1
 z4 G4 | G4 A4 | B4 A4 | G4 (c2 BA) | B8 | z4 B4 | A4 G4 | G4 ^F4 | G8 | z4 d4 | B4 (c2 G2) | %11
w: Bring|forth thy|spear, and|stop their _ _|course|That|haste my|blood to|spill;|Say|to my _|
w: A-|gainst all|those that|strive with _ _|me,|O|Lord, as-|sert my|right;|With|such as _|
w: Thy|buck- ler|take, and|bind thy _ _|shield|Up-|on thy|war- like|arm;|Stand|up, my _|
 A4 B4 | A4 G4 | ^F8 | z4 A4 | B4 (A2 G2) | (D2 G2) A4 | G8 |] %18
w: soul, I|am thy|health,|And|will pre- *|serve _ thee|still.|
w: war un-|just- ly|wage,|Do|thou my _|bat- * tles|fight.|
w: God, in|my de-|fence,|And|keep me _|safe _ from|harm.|
V:2
 z4 D4 | D4 D4 | (D2 E2) F4 | (E2 D2) F4 | F8 | z4 F4 | F4 D4 | E4 D4 | D8 | z4 D4 | D4 (E3 F/G/) | %11
w: Bring|forth thy|spear, _ and|stop _ their|course|That|haste my|blood to|spill;|Say|to my _ _|
w: A-|gainst all|those _ that|strive _ with|me,|O|Lord, as-|sert my|right;|With|such as _ _|
w: Thy|buck- ler|take, _ and|bind _ thy|shield|Up-|on thy|war- like|arm;|Stand|up, my _ _|
 ^F4 =F4 | F4 D4 | D8 | z4 D4 | (D3 E/F/) E4 | D4 D4 | D8 |] %18
w: soul, I|am thy|health,|And|will _ _ pre-|serve thee|still.|
w: war un-|just- ly|wage,|Do|thou _ _ my|bat- tles|fight.|
w: God, in|my de-|fence,|And|keep _ _ me|safe from|harm.|
V:3
 z4 G4 | B4 (A2 ^F2) | G4 d4 | (c2 G2) (A2 Bc) | d8 | z4 d4 | A4 B4 | (c2 B2) A4 | G8 | z4 B4 | %10
w: Bring|forth thy _|spear, and|stop _ their _ _|course|That|haste my|blood _ to|spill;|Say|
w: A-|gainst all _|those that|strive _ with _ _|me,|O|Lord, as-|sert _ my|right;|With|
w: Thy|buck- ler _|take, and|bind _ thy _ _|shield|Up-|on thy|war- * like|arm;|Stand|
 d4 (c2 B2) | A4 d4 | c4 (G3 A/B/) | A8 | z4 d4 | (fe d2) (c2 B2) | (AG D2) ^F4 | G8 |] %18
w: to my _|soul, I|am thy _ _|health,|And|will _ _ pre- *|serve _ _ thee|still.|
w: such as _|war un-|just- ly _ _|wage,|Do|thou _ _ my _|bat- * * tles|fight.|
w: up, my _|God, in|my de- * *|fence,|And|keep _ _ me _|safe _ _ from|harm.|
V:4
 z4 G,4 | G,4 D,4 | (G,F, E,2) D,4 | (E,C, G,2) F,4 | B,,8 | z4 B,,4 | D,4 G,4 | C,4 D,4 | G,,8 | %9
w: Bring|forth thy|spear, _ _ and|stop _ _ their|course|That|haste my|blood to|spill;|
w: A-|gainst all|those _ _ that|strive _ _ with|me,|O|Lord, as-|sert my|right;|
w: Thy|buck- ler|take, _ _ and|bind _ _ thy|shield|Up-|on thy|war- like|arm;|
 z4 G,4 | B,4 (A,2 G,2) | D,4 B,,4 | %12
w: Say|to my _|soul, I|
w: With|such as _|war un-|
w: Stand|up, my _|God, in|
"^Notes:The alto part is notated in the alto clef in the source.The opening words of the first verse are given in the source, as ‘Against all those &.’, with the title 'Ps. 35th' alsoindicating the text: the first four verses are given here.The F§ on beat 2 of bar 12 in the alto part has no accidental in the source, but instances of repeated accidentalswithin a bar elsewhere in the book indicate a convention that they apply only to a single note." F,4 G,4 | %13
w: am thy|
w: just- ly|
w: my de-|
 D,8 | z4 D,4 | B,,4 C,4 | D,4 D,4 | G,,8 |] %18
w: health,|And|will pre-|serve thee|still.|
w: wage,|Do|thou my|bat- tles|fight.|
w: fence,|And|keep me|safe from|harm.|

